packages/axiom-components/src/Pictogram/svgs/video.svg

<svg height="16" viewBox="0 0 16 16" width="16" xmlns="http://www.w3.org/2000/svg"><g fill-rule="evenodd"><path d="m10.6666667 3c.7373333 0 1.3333333.55875 1.3333333 1.25v7.5c0 .69125-.596 1.25-1.3333333 1.25h-9.33333337c-.736 0-1.33333333-.55875-1.33333333-1.25v-7.5c0-.69125.59733333-1.25 1.33333333-1.25zm1.3333333 7.05325v-4.10625l2.936-2.19125c.452-.3375 1.064.0175 1.064.6175v7.25375c0 .6-.612.95375-1.064.6175zm-7.5-4.55325v5l4-2.5z"/><path d="m4.5 5.5v5l4-2.5z" fill-opacity=".3"/></g></svg>

<?xml version="1.0" encoding="UTF-8"?>
<svg width="16px" height="16px" viewBox="0 0 16 16" version="1.1" xmlns="http://www.w3.org/2000/svg" xmlns:xlink="http://www.w3.org/1999/xlink">
    <!-- Generator: Sketch 46.2 (44496) - http://www.bohemiancoding.com/sketch -->
    <title>Video</title>
    <desc>Created with Sketch.</desc>
    <defs></defs>
    <g id="Axiom-Icons" stroke="none" stroke-width="1" fill="none" fill-rule="evenodd">
        <g id="Video" fill="#000000">
            <path d="M10.6666667,3 C11.404,3 12,3.55875 12,4.25 L12,11.75 C12,12.44125 11.404,13 10.6666667,13 L1.33333333,13 C0.597333333,13 0,12.44125 0,11.75 L0,4.25 C0,3.55875 0.597333333,3 1.33333333,3 L10.6666667,3 Z M12,10.05325 L12,5.947 L14.936,3.75575 C15.388,3.41825 16,3.77325 16,4.37325 L16,11.627 C16,12.227 15.388,12.58075 14.936,12.2445 L12,10.05325 Z M4.5,5.5 L4.5,10.5 L8.5,8 L4.5,5.5 Z" id="Combined-Shape"></path>
            <polygon id="Path" fill-opacity="0.3" points="4.5 5.5 4.5 10.5 8.5 8"></polygon>
        </g>
    </g>
</svg>
